X:1
T:Title
%%score { ( 1 3 4 ) | ( 2 5 ) } ( 6 7 )
L:1/8
M:4/4
K:C
V:1 treble nm="Grand Piano"
V:3 treble 
V:4 treble 
V:2 bass 
V:5 bass 
V:6 treble nm="Church Organ"
V:7 treble 
V:1
 z4 z2[Q:1/4=85] G2 | c>G EF GAG[Ec] | [DFB]4 [CEc]2 z c | d>B GB d2 dd | .^F2 z2 d4 | %5
 [Gd]>[EGc] [DGB]2 [EGA][E^GB][EAc][CEA] |[M:7/8] [B,DG]2 [CD^F]2 [B,DG]3 |[M:1/8] C | %8
[M:4/4][K:bass] B,>G, G,2 C,B,,A,,C, |[M:7/8] D,- D,3 G,3 |[M:1/8][K:treble] G | %11
[M:4/4] c>G EF GAG[Ec] |[M:7/8] BBB [FB] [Ec]3 |[M:1/8] [Ec] |[M:4/4] [Fc]2 [Ec]2 [Fc]3 [Gc] | %15
 [Gd]2 [^Fd]2 d3 d | eded cBc^c | d[Ge][Af][Ad] c>B .B2 | D[K:bass]^CDF, .G,2 .G,2 | %19
[M:7/8] z z z2[K:treble] C>B,B, |[M:1/8] G |[M:7/8] z z z2 G2 z |[M:1/8] B | %23
[M:7/8] [Ec]B[Ec] B [Ec]3 |[M:1/8] c |[M:7/8] z z z2 A2 z |[M:1/8] d |[M:7/8] cBB A [FA]2 G | %28
[M:1/8] G |[M:7/8] z z z2 G2 z |[M:1/8] d |[M:7/8] ede d e3 |[M:1/8] e |[M:7/8] ddA d z z/ c/G | %34
[M:1/8] c |[M:7/8] BBB B [Ec]3 |[M:3/4][Q:1/4=112] [Ec]4 [Ec]2 | [Gc]4 [Gc]2 | d4 dd | d2 c2 d2 | %40
 e4 [Gc]2 | [Fc]4 [CFA]2 | G6- | G4 z2 | [CFA]4 [DFB]2 | [CGc]4 d2 | e4 d2 | e4 d2 | e4 d2 | %49
 c4 z2 | [FB]6 | [Ec]6 |] %52
V:2
 z4 z2 G,2 | C>G, E,F, G,A,G,G, | G,4 C,2 z C | D>B, G,B,[K:treble] D2 D[G,B,G] | %4
 [D,A,][D,B,][D,C][D,A,][K:treble] [G,B,G]2 [G,B,][K:bass][^F,C] | [G,B,]>G, G,2 C,B,,A,,C, | %6
[M:7/8] D,2 D,2 G,3 |[M:1/8] ^F, |[M:4/4] G,2 z2 z4 |[M:7/8] z z z2 G,,3 |[M:1/8] G, | %11
[M:4/4] C>G, E,F, G,A,G,[C,G,] |[M:7/8] [G,D][F,G,D][E,G,E] [D,G,] [C,G,]3 |[M:1/8] [C,C] | %14
[M:4/4] [F,A,]2 [C,A,]2 [F,A,]3 [E,C] | [G,B,]2 [D,C]2[K:treble] [G,B,G]3 [G,B,G] | %16
 [CG][G,B,G][CG][G,B,F][K:bass] [A,E][E,^G,E][A,E][=G,A,E] | %17
 [F,A,F][E,^C][D,D][K:treble][F,F] [G,EG]>[G,DG] .[G,DG]2 | F,E, .D,2 z2 .G,,2 | %19
[M:7/8] z z z2 [F,G,]>[F,G,][F,G,] |[M:1/8] z |[M:7/8] C,[E,G,C][E,G,C] [E,G,C]C, [E,G,][E,G,] | %22
[M:1/8] [G,F] |[M:7/8] [C,G,][G,F][C,G,] [G,F] [C,G,]3 |[M:1/8] z | %25
[M:7/8] F,,[F,A,D][F,A,D] [F,A,D]F,, [F,A,][F,A,] |[M:1/8][K:treble] [F,A,F] | %27
[M:7/8] [G,DF][G,DF][G,DF] [G,B,F][K:bass] z2 E |[M:1/8] z | %29
[M:7/8] C,[E,G,C][E,G,C] [E,G,C]C, [E,G,][E,G,] |[M:1/8][K:treble] [G,B,G] | %31
[M:7/8] [CG][G,B,G][CG] [G,B,G] [CG]3 |[M:1/8] z | %33
[M:7/8][K:bass] F,,[F,A,D][F,A,D] [F,A,D]F,, [F,A,][F,A,] |[M:1/8][K:treble] [G,CE] | %35
[M:7/8] [G,DF][G,DF][G,DF] [G,F][K:bass] [C,G,]3 |[M:3/4] [C,G,]4 [C,G,]2 | [E,C]4 [E,C]2 | %38
 [G,B,G]4 [G,B,G][G,B,G] | [G,B,F]2 [A,CE]2 [G,B,G]2 | [CG]4[K:bass] [E,_B,]2 | [F,A,]4 F,2 | %42
 C,4 G,,G,, | C,4 C,2 | F,4 D,2 | E,4[K:treble] [G,B,G]2 | [CG]4 [G,B,G]2 | [CG]4 [G,B,G]2 | %48
 [CG]4[K:bass] [F,A,F]2 | [G,E]4 z2 | [G,,G,]6 | [C,G,]6 |] %52
V:3
 x8 | x8 | x8 | x8 | d-[Gd-][Ad-][^Fd] z2 G[Ad] | x8 |[M:7/8] x7 |[M:1/8] x |[M:4/4][K:bass] x8 | %9
[M:7/8] x7 |[M:1/8][K:treble] x |[M:4/4] x8 |[M:7/8] x7 |[M:1/8] x |[M:4/4] x8 | x8 | x8 | x8 | %18
 x[K:bass] x7 |[M:7/8] x4[K:treble] x3 |[M:1/8] x |[M:7/8] cGE A z z/ E/C |[M:1/8] x |[M:7/8] x7 | %24
[M:1/8] x |[M:7/8] dAF B z z/ F/D |[M:1/8] x |[M:7/8] x7 |[M:1/8] x |[M:7/8] cGE A z z/ E/C | %30
[M:1/8] x |[M:7/8] x7 |[M:1/8] x |[M:7/8] z z z2 c2 z |[M:1/8] x |[M:7/8] x7 |[M:3/4] x6 | x6 | %38
 x6 | x6 | x6 | x6 | [CE]4 [B,D][DF] | [CE]4 [CEG]2 | x6 | x6 | x6 | x6 | x6 | x6 | x6 | x6 |] %52
V:4
 x8 | x8 | x8 | x8 | x8 | x8 |[M:7/8] x7 |[M:1/8] x |[M:4/4][K:bass] x8 |[M:7/8] x7 | %10
[M:1/8][K:treble] x |[M:4/4] x8 |[M:7/8] x7 |[M:1/8] x |[M:4/4] x8 | x8 | x8 | x8 | x[K:bass] x7 | %19
[M:7/8] x4[K:treble] x3 |[M:1/8] x |[M:7/8] z z z z2 C z |[M:1/8] x |[M:7/8] x7 |[M:1/8] x | %25
[M:7/8] z z z z2 D z |[M:1/8] x |[M:7/8] x7 |[M:1/8] x |[M:7/8] z z z z2 C z |[M:1/8] x | %31
[M:7/8] x7 |[M:1/8] x |[M:7/8] z z z z2 D z |[M:1/8] x |[M:7/8] x7 |[M:3/4] x6 | x6 | x6 | x6 | %40
 x6 | x6 | x6 | x6 | x6 | x6 | x6 | x6 | x6 | x6 | x6 | x6 |] %52
V:5
 x8 | x8 | x8 | x4[K:treble] x4 | x4[K:treble] x3[K:bass] x | x8 |[M:7/8] x7 |[M:1/8] x | %8
[M:4/4] x8 |[M:7/8] x7 |[M:1/8] x |[M:4/4] x8 |[M:7/8] x7 |[M:1/8] x |[M:4/4] x8 | %15
 x4[K:treble] x4 | x4[K:bass] x4 | x3[K:treble] x5 | x8 |[M:7/8] x7 |[M:1/8] x |[M:7/8] x7 | %22
[M:1/8] x |[M:7/8] x7 |[M:1/8] x |[M:7/8] x7 |[M:1/8][K:treble] x |[M:7/8] z z z2[K:bass] [C,C]3 | %28
[M:1/8] x |[M:7/8] x7 |[M:1/8][K:treble] x |[M:7/8] x7 |[M:1/8] x |[M:7/8][K:bass] x7 | %34
[M:1/8][K:treble] x |[M:7/8] x4[K:bass] x3 |[M:3/4] x6 | x6 | x6 | x6 | x4[K:bass] x2 | x6 | x6 | %43
 x6 | x6 | x4[K:treble] x2 | x6 | x6 | x4[K:bass] x2 | x6 | x6 | x6 |] %52
V:6
 z8 | z8 | z8 | z8 | z8 | z8 |[M:7/8] z7 |[M:1/8] [Ad] | %8
[M:4/4] [Gd]>[EGc] [DGB]2 [EGA][E^GB][EAc][CEA] |[M:7/8] [B,DG]2 [CD^F]2 [B,DG]3 |[M:1/8] z | %11
[M:4/4] z8 |[M:7/8] z7 |[M:1/8] z |[M:4/4] z8 | z8 | z8 | z8 | %18
 d[^ce][df][FAd] [EG=c]>[DGB] .[DGB]2 |[M:7/8] c2 z z z z2 |[M:1/8] z |[M:7/8] z7 |[M:1/8] z | %23
[M:7/8] z7 |[M:1/8] z |[M:7/8] z7 |[M:1/8] z |[M:7/8] z7 |[M:1/8] z |[M:7/8] z7 |[M:1/8] z | %31
[M:7/8] z7 |[M:1/8] z |[M:7/8] z7 |[M:1/8] z |[M:7/8] z7 |[M:3/4] z6 | z6 | z6 | z6 | z6 | z6 | %42
 z6 | z6 | z6 | z6 | z6 | z6 | z6 | z6 | z6 | z6 |] %52
V:7
 x8 | x8 | x8 | x8 | x8 | x8 |[M:7/8] x7 |[M:1/8] x |[M:4/4] x8 |[M:7/8] x7 |[M:1/8] x | %11
[M:4/4] x8 |[M:7/8] x7 |[M:1/8] x |[M:4/4] x8 | x8 | x8 | x8 | A4 z4 | %19
[M:7/8] [DF]->[DFB] [DFGB]2 z z2 |[M:1/8] x |[M:7/8] x7 |[M:1/8] x |[M:7/8] x7 |[M:1/8] x | %25
[M:7/8] x7 |[M:1/8] x |[M:7/8] x7 |[M:1/8] x |[M:7/8] x7 |[M:1/8] x |[M:7/8] x7 |[M:1/8] x | %33
[M:7/8] x7 |[M:1/8] x |[M:7/8] x7 |[M:3/4] x6 | x6 | x6 | x6 | x6 | x6 | x6 | x6 | x6 | x6 | x6 | %47
 x6 | x6 | x6 | x6 | x6 |] %52

